X:24
T:Mulloch Cairn
C:Joe Buchanan's Scottish Tome - Page 331.0
I:331 0
R:Barndance
Z:Carl Allison
L:1/8
M:2/4
K:D
(A/>d/) | "D" f(f/>a/) "A" d(d/>A/) | "D" B/>A/B/<d/ "A" BA | \
"E" c(A/>c/) "A" e(c/>e/) | "E" g/>f/"A7"e/>d/ "A" fe |
"D" f(f/>a/) "A" d(d/>A/) | "D" B/>A/B/<d/ "A" BA | \
"E" c(A/>c/) "A" (f/<a/)"A7"e/>f/ | "D" d2 d :|
(f>g) | "D" a(a/>g/) "A" f(f/>e/) | "D" d/>A/B/<d/ "A" BA | \
"E" cA/>c/ "A" ed/>e/ | "E" g/>f/e/<d/ "A" ef/>g/ |
"D" aa/>g/ "A" ff/>e/ | "D" d/>A/B/<d/ "A" BA | \
"E" c(A/>c/) "A" (f/<a/)e/>f/ | "D" d2 d :|
(f/>e/) | "D" dd/>A/ "A" B/>d/B/<G/ | "D" Ad/>e/ "A" f/>a/f/<d/ | \
"E" cc/>B/ "A" A/<c/e/>f/ | "D" B/>A/B/<d/ "A" ce |
"D" dd/>A/ "A" B/>d/B/<G/ | "D" Ad/>e/ "A" f/>a/f/<d/ | \
"E" c(A/>c/) "A" (f/<a/)"A7"e/>f/ | "D" d2 d :|
(f/>g/) | "D" aa/>g/ "A" f/<a/d/>f/ | "D" BA/>d/ "A" f/>a/f/<d/ | \
"D" g>ff>e "A" e/<d/d/>c/ | "D" c>Bc/>d/ "A" ef/>g/ |
"D" aa/>g/ "A" f/<a/d/>f/ | "D" BA/>d/ "A" f/>a/f/<d/ | \
"E" c(A/>c/) "A" (f/<a/)"A7"e/>f/ | "D" d2 d f/>g/ |
"D" aa/>g/ "A" f/<a/d/>f/ | "D" BA/>d/ "A" f/>a/f/<d/ | \
"D" g>ff>e "A" e/<d/d/>c/ | "D" c>Bc/>d/ "A" ed/>c/ |
"G" B/>G/B/<d/ "A" c/>A/c/<e/ | "D" dd/>e/ "A" f/>a/f/<d/ | \
"E" c(A/>c/) "A" (f/<a/)"A7"e/>f/ | "D" d2 d |]

